**kern	**kern	**dynam
*part1	*part1	*part1
*staff2	*staff1	*
*I"Piano	*	*
*clefF4	*clefG2	*
*k[b-]	*k[b-]	*
=1	=1	=1
8BBB-^ 8BB-	16b-LL	.
.	16cc	.
16ALL 16d 16f	16b-	.
16AJ 16d 16f	16a	.
8AJ 8d 8f	16g	.
.	16aJJ	.
=	=	=
8EE-X^ 8E-X	16gLL	.
.	16f	.
*clefG2	*	*
(8gL	16e-X	.
.	16f	.
8bnJ)	16e-	.
.	16dJJ	.
*clefF4	*	*
=	=	=
8C^	16cLL	.
.	16d	.
*clefG1	*	*
16g-XLL 16ee	16c	.
16g-J 16ee	16B-	.
8g-J 8ee	16A	.
.	16dJJ	.
*clefF4	*	*
=	=	=
8FF^	16ALL	.
.	16c	.
16FLL 16c	16e-X	.
16FJ 16c	16f	.
8FJ 8c	16a	.
.	16ccJJ	.
=	=	=
8BB-^L	16dd^LL	.
.	16b-	.
16FL	16f	.
16FJJ	16d	.
16F	16B-	.
16r	16FJJ	.
=	=	=
8EEn^	16G#XLL	.
.	16Bn	.
16EnLL 16Bn	16en	.
16EJJ 16B	16g#X	.
8E 8B	16bn	.
.	16eeJJ	.
=	=	=
8AA^	16cc#X^LL	.
.	16a	.
8r	16e	.
.	16c#XJJ	.
16B-LL	(16gnLL	p
16EJJ	16aJJ	.
=	=	=
*-	*-	*-
!!!system-decoration: {(s1,s2)}
